src/svg/sim.svg

<?xml version="1.0" encoding="UTF-8"?><svg id="_イヤー_2" xmlns="http://www.w3.org/2000/svg" viewBox="0 0 591.02334 591.02334"><defs><style>.cls-1{fill:#040000;}</style></defs><path class="cls-1" d="M458.05764,136.21032l-63.31612-59.51847c-11.79737-11.08964-27.61952-17.29613-44.09321-17.29613H177.05876c-34.89051,0-63.17489,27.28087-63.17489,60.93306V470.69456c0,33.65249,28.28438,60.93306,63.17489,60.93306h236.90567c34.89066,0,63.17504-27.28058,63.17504-60.93306V179.84696c0-16.43196-6.8812-32.16807-19.08183-43.63664Zm-12.50569,334.48424c0,16.82624-14.14219,30.46639-31.58752,30.46639H177.05876c-17.44518,0-31.58737-13.64014-31.58737-30.46639V120.32878c0-16.82624,14.14219-30.46668,31.58737-30.46668h173.58955c8.23699,0,16.14777,3.10325,22.0466,8.64807l63.31612,59.51847c6.10046,5.73457,9.54092,13.60248,9.54092,21.81832V470.69456Z"/><path class="cls-1" d="M382.37691,287.89507H208.64614c-17.44504,0-31.58737,13.64014-31.58737,30.46639v121.86642c0,16.82624,14.14234,30.46668,31.58737,30.46668h173.73078c17.44533,0,31.58752-13.64043,31.58752-30.46668v-121.86642c0-16.82624-14.14219-30.46639-31.58752-30.46639Zm-31.58723,76.16626h31.58723v15.23348h-31.58723v-15.23348Zm31.58723-30.46639h-31.58723v-15.23348h31.58723v15.23348Zm-142.14326-15.23348v30.46668h-31.58752v-30.46668h31.58752Zm0,76.16655h-31.58752v-15.23319h31.58752v15.23319Zm-31.58752,30.46668h31.58752v15.23319h-31.58752v-15.23319Zm63.17504,15.23319v-121.86642h47.38099v121.86642h-47.38099Zm78.96851,0v-30.46668h31.58723v30.46668h-31.58723Z"/></svg>

<svg id="レイヤー_2" data-name="レイヤー 2" xmlns="http://www.w3.org/2000/svg" viewBox="0 0 591.02 591.02"><defs><style>.cls-1{fill:#040000;}</style></defs><path class="cls-1" d="M458.06,136.21,394.74,76.69A64.4,64.4,0,0,0,350.65,59.4H177.06c-34.89,0-63.18,27.28-63.18,60.93V470.69c0,33.66,28.29,60.94,63.18,60.94H414c34.9,0,63.18-27.28,63.18-60.94V179.85A59.89,59.89,0,0,0,458.06,136.21ZM445.55,470.69c0,16.83-14.14,30.47-31.59,30.47H177.06c-17.45,0-31.59-13.64-31.59-30.47V120.33c0-16.83,14.14-30.47,31.59-30.47H350.65a32.19,32.19,0,0,1,22,8.65L436,158a29.94,29.94,0,0,1,9.54,21.82Z"/><path class="cls-1" d="M382.38,287.9H208.65c-17.45,0-31.59,13.64-31.59,30.46V440.23c0,16.82,14.14,30.46,31.59,30.46H382.38c17.44,0,31.58-13.64,31.58-30.46V318.36C414,301.54,399.82,287.9,382.38,287.9Zm-31.59,76.16h31.59v15.23H350.79Zm31.59-30.47H350.79V318.36h31.59ZM240.23,318.36v30.47H208.65V318.36Zm0,76.17H208.65V379.29h31.58ZM208.65,425h31.58v15.24H208.65Zm63.17,15.24V318.36H319.2V440.23Zm79,0V409.76h31.59v30.47Z"/></svg>
